.icons/Gruvbox-Plus-Dark/apps/scalable/transmission-remote-gtk.svg

<svg xmlns="http://www.w3.org/2000/svg" style="isolation:isolate" width="256" height="256" viewBox="0 0 256 256">
 <g filter="url(#igMHWspAFy0kbGeTxmZVbRMCnvTsk50x)">
  <linearGradient id="_lgradient_161" x1="0" x2="0" y1="0" y2="1" gradientTransform="matrix(244.648309,0,0,228.338396,5.68,11.951604)" gradientUnits="userSpaceOnUse">
   <stop offset="0%" style="stop-color:#076678"/>
   <stop offset="100%" style="stop-color:#458588"/>
  </linearGradient>
  <path fill="url(#_lgradient_161)" d="M 165.688919 11.951604 C 239.744626 11.951604 250.328309 22.508801 250.328309 96.495462 L 250.328309 155.746257 C 250.328309 229.732514 239.744626 240.29 165.688919 240.29 L 90.319393 240.29 C 16.26369 240.29 5.68 229.732514 5.68 155.746257 L 5.68 96.495462 C 5.68 22.508801 16.26369 11.951604 90.319393 11.951604 L 165.688919 11.951604 Z"/>
 </g>
 <g opacity=".4">
  <linearGradient id="_lgradient_162" x1=".517" x2=".517" y1="0" y2="1" gradientTransform="matrix(244.65,0,0,228.34,5.68,11.95)" gradientUnits="userSpaceOnUse">
   <stop offset="0%" style="stop-color:#ebdbb2"/>
   <stop offset="12.5%" stop-opacity=".098" style="stop-color:#ebdbb2"/>
   <stop offset="92.5%" stop-opacity=".098" style="stop-color:#282828"/>
   <stop offset="100%" stop-opacity=".498" style="stop-color:#282828"/>
  </linearGradient>
  <path fill="url(#_lgradient_162)" fill-rule="evenodd" d="M 165.06803 11.951234 C 169.395994 11.941409 173.723944 11.990533 178.051908 12.088781 C 181.927398 12.167379 185.802873 12.31475 189.678362 12.540721 C 193.1309 12.737216 196.583423 13.022134 200.026115 13.395476 C 203.085193 13.729518 206.144271 14.181458 209.173842 14.741469 C 211.888645 15.242533 214.57394 15.881143 217.219897 16.6573 C 219.619947 17.354858 221.970814 18.219439 224.242988 19.241215 C 226.357793 20.184394 228.384061 21.304417 230.302129 22.591462 C 232.141505 23.829383 233.862851 25.244151 235.436659 26.80629 C 237.000621 28.378252 238.417046 30.087764 239.656409 31.924995 C 240.944972 33.840824 242.066305 35.864728 243.020409 37.967229 C 244.043389 40.246576 244.908985 42.584873 245.617197 44.972292 C 246.394255 47.615155 247.033606 50.297317 247.535265 53.008956 C 248.095924 56.034984 248.548399 59.080665 248.882828 62.13617 C 249.256611 65.574836 249.541856 69.013506 249.738578 72.462003 C 249.964823 76.323139 250.112361 80.194101 250.200884 84.055237 C 250.289421 88.378131 250.338591 92.701032 250.32876 97.014106 L 250.32876 155.225886 C 250.338591 159.54878 250.289421 163.861854 250.200884 168.184747 C 250.112361 172.05571 249.964823 175.916853 249.738578 179.777981 C 249.541856 183.226485 249.256611 186.674975 248.882828 190.103826 C 248.548399 193.15933 248.095924 196.214835 247.535265 199.240851 C 247.033606 201.942664 246.394255 204.624837 245.617197 207.267703 C 244.908985 209.655115 244.043389 212.003235 243.020409 214.272755 C 242.066305 216.38509 240.944972 218.399156 239.656409 220.314999 C 238.417046 222.152226 237.000621 223.871561 235.436659 225.433697 C 233.862851 226.995832 232.141505 228.410601 230.302129 229.648532 C 228.384061 230.935575 226.357793 232.055598 224.242988 232.998768 C 221.970814 234.020552 219.619947 234.885137 217.219897 235.592507 C 214.57394 236.368672 211.888645 237.007276 209.173842 237.498515 C 206.144271 238.068354 203.085193 238.510465 200.026115 238.844519 C 196.583423 239.21785 193.1309 239.502777 189.678362 239.699269 C 185.802873 239.925235 181.927398 240.072615 178.051908 240.161035 C 173.723944 240.249454 169.395994 240.298581 165.06803 240.288762 L 90.941963 240.288762 C 86.614006 240.298581 82.286049 240.249454 77.9581 240.161035 C 74.08261 240.072615 70.20712 239.925235 66.331638 239.699269 C 62.879108 239.502777 59.426578 239.21785 55.983886 238.844519 C 52.924808 238.510465 49.865733 238.068354 46.836162 237.498515 C 44.121356 237.007276 41.436057 236.368672 38.7901 235.592507 C 36.390053 234.885137 34.039187 234.020552 31.767009 232.998768 C 29.652213 232.055598 27.625943 230.935575 25.707871 229.648532 C 23.868489 228.410601 22.147143 226.995832 20.573343 225.433697 C 19.009377 223.871561 17.592955 222.152226 16.353586 220.314999 C 15.065036 218.399156 13.943701 216.38509 12.989584 214.272755 C 11.966612 212.003235 11.101021 209.655115 10.392811 207.267703 C 9.615746 204.624837 8.976389 201.942664 8.47474 199.240851 C 7.914072 196.214835 7.461604 193.15933 7.127172 190.103826 C 6.753394 186.674975 6.468142 183.226485 6.271417 179.777981 C 6.045183 175.916853 5.897639 172.05571 5.809112 168.184747 C 5.720586 163.861854 5.671405 159.54878 5.681241 155.225886 L 5.681241 97.014106 C 5.671405 92.701032 5.720586 88.378131 5.809112 84.055237 C 5.897639 80.194101 6.045183 76.323139 6.271417 72.462003 C 6.468142 69.013506 6.753394 65.574836 7.127172 62.13617 C 7.461604 59.080665 7.914072 56.034984 8.47474 53.008956 C 8.976389 50.297317 9.615746 47.615155 10.392811 44.972292 C 11.101021 42.584873 11.966612 40.246576 12.989584 37.967229 C 13.943701 35.864728 15.065036 33.840824 16.353586 31.924995 C 17.592955 30.087764 19.009377 28.378252 20.573343 26.80629 C 22.147143 25.244151 23.868489 23.829383 25.707871 22.591462 C 27.625943 21.304417 29.652213 20.184394 31.767009 19.241215 C 34.039187 18.219439 36.390053 17.354858 38.7901 16.6573 C 41.436057 15.881143 44.121356 15.242533 46.836162 14.741469 C 49.865733 14.181458 52.924808 13.729518 55.983886 13.395476 C 59.426578 13.022134 62.879108 12.737216 66.331638 12.540721 C 70.20712 12.31475 74.08261 12.167379 77.9581 12.088781 C 82.286049 11.990533 86.614006 11.941409 90.941963 11.951234 L 165.06803 11.951234 Z M 165.077876 15.959741 C 169.376317 15.949916 173.674759 15.99904 177.973216 16.087463 C 181.799522 16.175886 185.625827 16.323257 189.452133 16.539402 C 192.835809 16.735898 196.219486 17.010992 199.583486 17.384332 C 202.554026 17.698726 205.514751 18.131016 208.445953 18.681203 C 211.023049 19.152792 213.580483 19.761928 216.098564 20.498786 C 218.321569 21.147221 220.495374 21.952852 222.600334 22.896029 C 224.508571 23.750785 226.338116 24.762737 228.069293 25.922059 C 229.692286 27.012609 231.207063 28.260355 232.59398 29.645648 C 233.980897 31.030941 235.230091 32.543956 236.331763 34.165043 C 237.492434 35.894202 238.505568 37.711787 239.361333 39.607968 C 240.305606 41.720292 241.112187 43.891565 241.761369 46.102139 C 242.508934 48.617282 243.108947 51.161898 243.590914 53.735987 C 244.131912 56.663768 244.564709 59.6112 244.889308 62.578282 C 245.263091 65.938355 245.538505 69.308252 245.735227 72.687976 C 245.951626 76.509812 246.10901 80.321821 246.187687 84.143656 C 246.276225 88.437084 246.325394 92.720685 246.325394 97.014106 C 246.325394 97.014106 246.325394 97.014106 246.325394 97.014106 L 246.325394 155.225886 C 246.325394 155.225886 246.325394 155.225886 246.325394 155.225886 C 246.325394 159.519306 246.276225 163.802907 246.187687 168.096328 C 246.10901 171.918164 245.951626 175.739999 245.735227 179.552015 C 245.538505 182.931739 245.263091 186.301629 244.889308 189.671533 C 244.564709 192.628784 244.131912 195.576216 243.590914 198.503994 C 243.108947 201.078094 242.508934 203.622706 241.761369 206.137845 C 241.112187 208.358253 240.305606 210.5197 239.361333 212.63202 C 238.505568 214.528209 237.492434 216.355617 236.331763 218.074952 C 235.230091 219.705853 233.980897 221.218876 232.59398 222.604172 C 231.207063 223.979634 229.692286 225.227385 228.069293 226.317935 C 226.338116 227.477251 224.508571 228.489201 222.600334 229.343951 C 220.495374 230.296956 218.321569 231.092775 216.098564 231.741198 C 213.580483 232.478056 211.023049 233.087202 208.445953 233.558787 C 205.514751 234.108972 202.554026 234.541264 199.583486 234.865483 C 196.219486 235.228995 192.835809 235.513922 189.452133 235.70058 C 185.625827 235.916726 181.799522 236.073926 177.973216 236.152526 C 173.674759 236.25078 169.376317 236.290072 165.077876 236.290072 C 165.077876 236.290072 165.077876 236.290072 165.06803 236.290072 L 90.941963 236.290072 C 90.932125 236.290072 90.932125 236.290072 90.932125 236.290072 C 86.633683 236.290072 82.335234 236.25078 78.036784 236.152526 C 74.210479 236.073926 70.384173 235.916726 66.557868 235.70058 C 63.174195 235.513922 59.790522 235.228995 56.426518 234.865483 C 53.455967 234.541264 50.495253 234.108972 47.564048 233.558787 C 44.986944 233.087202 42.429517 232.478056 39.911433 231.741198 C 37.688439 231.092775 35.514626 230.296956 33.409665 229.343951 C 31.501429 228.489201 29.671886 227.477251 27.940703 226.317935 C 26.31772 225.227385 24.802935 223.979634 23.416022 222.604172 C 22.029109 221.218876 20.779904 219.705853 19.678243 218.074952 C 18.517564 216.355617 17.504428 214.528209 16.648674 212.63202 C 15.704392 210.5197 14.897819 208.358253 14.248626 206.137845 C 13.50107 203.622706 12.901057 201.078094 12.419081 198.503994 C 11.878086 195.576216 11.445291 192.628784 11.120694 189.671533 C 10.746916 186.301629 10.471501 182.931739 10.274776 179.552015 C 10.058378 175.739999 9.900997 171.918164 9.822307 168.096328 C 9.733781 163.802907 9.6846 159.519306 9.6846 155.225886 C 9.6846 155.225886 9.6846 155.225886 9.6846 155.225886 L 9.6846 97.014106 C 9.6846 97.014106 9.6846 97.014106 9.6846 97.014106 C 9.6846 92.720685 9.733781 88.437084 9.822307 84.143656 C 9.900997 80.321821 10.058378 76.509812 10.274776 72.687976 C 10.471501 69.308252 10.746916 65.938355 11.120694 62.578282 C 11.445291 59.6112 11.878086 56.663768 12.419081 53.735987 C 12.901057 51.161898 13.50107 48.617282 14.248626 46.102139 C 14.897819 43.891565 15.704392 41.720292 16.648674 39.607968 C 17.504428 37.711787 18.517564 35.894202 19.678243 34.165043 C 20.779904 32.543956 22.029109 31.030941 23.416022 29.645648 C 24.802935 28.260355 26.31772 27.012609 27.940703 25.922059 C 29.671886 24.762737 31.501429 23.750785 33.409665 22.896029 C 35.514626 21.952852 37.688439 21.147221 39.911433 20.498786 C 42.429517 19.761928 44.986944 19.152792 47.564048 18.681203 C 50.495253 18.131016 53.455967 17.698726 56.426518 17.384332 C 59.790522 17.010992 63.174195 16.735898 66.557868 16.539402 C 70.384173 16.323257 74.210479 16.175886 78.036784 16.087463 C 82.335234 15.99904 86.633683 15.949916 90.932125 15.959741 C 90.932125 15.959741 90.932125 15.959741 90.941963 15.959741 L 165.06803 15.959741 C 165.077876 15.959741 165.077876 15.959741 165.077876 15.959741 Z"/>
 </g>
 <g opacity=".4" filter="url(#4WBGpjGoaNCpwqJI4vDoXVwgskw8g742)">
  <path d="M 156.496994 46 C 212.496994 46 220.5 53.860001 220.5 108.944 L 220.5 153.056 C 220.5 208.139999 212.496994 216 156.496994 216 L 99.502998 216 C 43.502998 216 35.5 208.139999 35.5 153.056 L 35.5 108.944 C 35.5 53.860001 43.502998 46 99.502998 46 L 156.496994 46 Z"/>
 </g>
 <linearGradient id="_lgradient_163" x1=".233" x2=".933" y1="-.071" y2=".83" gradientTransform="matrix(185,0,0,170,35.5,43)" gradientUnits="userSpaceOnUse">
  <stop offset="0%" style="stop-color:#ebdbb2"/>
  <stop offset="100%" style="stop-color:#e1e1e1"/>
 </linearGradient>
 <path fill="url(#_lgradient_163)" d="M 156.496994 43 C 212.496994 43 220.5 50.860001 220.5 105.944 L 220.5 150.056 C 220.5 205.139999 212.496994 213 156.496994 213 L 99.502998 213 C 43.502998 213 35.5 205.139999 35.5 150.056 L 35.5 105.944 C 35.5 50.860001 43.502998 43 99.502998 43 L 156.496994 43 Z"/>
 <g style="opacity:0.9">
  <g opacity=".5">
   <path fill="#ebdbb2" d="M 126.336998 65.321999 L 93.597 98.921997 L 113.240997 98.921997 L 113.240997 159.401001 L 93.597 159.401001 L 126.336998 193 L 159.078003 159.401001 L 139.434006 159.401001 L 139.434006 98.921997 L 159.078003 98.921997 L 126.336998 65.321999 Z"/>
  </g>
  <g opacity=".9">
   <path fill-opacity=".2" d="M 129.662994 91.665001 C 90.445999 91.665001 83.824997 98.433998 83.824997 106.783997 C 83.824997 114.158997 88.988998 120.293999 117.231003 121.628998 L 119.839996 140.384003 L 139.485001 140.384003 L 142.093994 121.628998 C 170.335999 120.293999 175.5 114.158997 175.5 106.783997 C 175.5 98.433998 168.878998 91.665001 129.662994 91.665001 L 129.662994 91.665001 Z"/>
  </g>
  <g opacity=".9">
   <path fill="#504945" d="M 126.336998 63 L 93.597 96.599998 L 113.240997 96.599998 L 113.240997 157.078995 L 93.597 157.078995 L 126.336998 190.677994 L 159.078003 157.078995 L 139.434006 157.078995 L 139.434006 96.599998 L 159.078003 96.599998 L 126.336998 63 Z"/>
  </g>
  <g opacity=".9">
   <path fill="#bdae93" d="M 113.240997 113.399002 L 116.514999 136.919006 L 136.160004 136.919006 L 139.434006 113.399002 L 113.240997 113.399002 L 113.240997 113.399002 Z"/>
  </g>
  <g opacity=".3">
   <path d="M 126.337997 63 L 93.596001 96.599998 L 96.741997 96.599998 L 126.337997 66.227997 L 155.932999 96.599998 L 159.078003 96.599998 L 126.337997 63 Z M 93.596001 157.078003 L 96.741997 160.306 L 113.240997 160.306 L 113.240997 157.078003 L 93.596001 157.078003 Z M 139.434006 157.078003 L 139.434006 160.306 L 155.932999 160.306 L 159.078003 157.078003 L 139.434006 157.078003 Z"/>
  </g>
  <linearGradient id="_lgradient_164" x1="0" x2="0" y1="0" y2="1" gradientTransform="matrix(91.675003,0,0,30.239006,80.5,88.199997)" gradientUnits="userSpaceOnUse">
   <stop offset="0%" style="stop-color:#076678"/>
   <stop offset="100%" style="stop-color:#458588"/>
  </linearGradient>
  <path fill="url(#_lgradient_164)" d="M 172.175003 103.32 C 172.175003 111.669998 165.606003 118.439003 126.336998 118.439003 C 87.069 118.439003 80.5 111.669998 80.5 103.32 C 80.5 94.969002 87.121002 88.199997 126.336998 88.199997 C 165.554001 88.199997 172.175003 94.969002 172.175003 103.32 Z"/>
  <g opacity=".2">
   <path d="M 116.053001 133.598999 L 116.514999 136.919006 L 136.160004 136.919006 L 136.628998 133.544998 L 116.053001 133.598999 Z"/>
  </g>
  <g opacity=".3">
   <path fill="#ebdbb2" d="M 126.337997 88.199997 C 87.121002 88.199997 80.5 94.969002 80.5 103.32 C 80.5 103.865997 80.529999 104.404999 80.594002 104.935997 C 81.503998 97.344002 89.678001 91.428001 126.337997 91.428001 C 162.996994 91.428001 171.171005 97.344002 172.080994 104.935997 C 172.145004 104.404999 172.175003 103.865997 172.175003 103.32 C 172.175003 94.969002 165.554001 88.199997 126.337997 88.199997 L 126.337997 88.199997 Z"/>
  </g>
  <g opacity=".3">
   <path d="M 80.536003 102.351997 C 80.514999 102.671997 80.5 102.994003 80.5 103.32 C 80.5 111.669998 87.07 118.439003 126.337997 118.439003 C 165.606003 118.439003 172.175003 111.669998 172.175003 103.32 C 172.175003 102.995003 172.160004 102.674004 172.139008 102.355003 C 171.606003 110.251999 164.067993 116.502998 126.337997 116.502998 C 88.601997 116.502998 81.067001 110.25 80.536003 102.351997 Z"/>
  </g>
 </g>
</svg>

<svg width="256" height="256" style="isolation:isolate" version="1.1" viewBox="0 0 256 256" xmlns="http://www.w3.org/2000/svg">
  <g filter="url(#igMHWspAFy0kbGeTxmZVbRMCnvTsk50x)">
    <linearGradient id="_lgradient_161" x2="0" y2="1" gradientTransform="matrix(244.65 0 0 228.34 5.68 11.952)" gradientUnits="userSpaceOnUse">
      <stop stop-color="#076678" offset="0"/>
      <stop stop-color="#458588" offset="1"/>
    </linearGradient>
    <path d="m165.69 11.952c72.075 0 84.639 10.557 84.639 84.544v59.251c0 73.986-11.617 84.544-84.639 84.544h-75.37c-72.247 0-84.639-10.557-84.639-84.544v-59.251c0-73.987 12.533-84.544 84.639-84.544z" fill="url(#_lgradient_161)"/>
  </g>
  <g opacity=".4">
    <linearGradient id="_lgradient_162" x1=".517" x2=".517" y2="1" gradientTransform="matrix(244.65,0,0,228.34,5.68,11.95)" gradientUnits="userSpaceOnUse">
      <stop stop-color="#ebdbb2" offset="0"/>
      <stop stop-color="#ebdbb2" stop-opacity=".098" offset=".125"/>
      <stop stop-color="#282828" stop-opacity=".098" offset=".925"/>
      <stop stop-color="#282828" stop-opacity=".498" offset="1"/>
    </linearGradient>
    <path d="m165.07 11.951c4.328-0.009825 8.6559 0.039299 12.984 0.13755 3.8755 0.078598 7.751 0.22597 11.626 0.45194 3.4525 0.1965 6.9051 0.48141 10.348 0.85476 3.0591 0.33404 6.1182 0.78598 9.1477 1.346 2.7148 0.50106 5.4001 1.1397 8.0461 1.9158 2.4 0.69756 4.7509 1.5621 7.0231 2.5839 2.1148 0.94318 4.1411 2.0632 6.0591 3.3502 1.8394 1.2379 3.5607 2.6527 5.1345 4.2148 1.564 1.572 2.9804 3.2815 4.2198 5.1187 1.2886 1.9158 2.4099 3.9397 3.364 6.0422 1.023 2.2793 1.8886 4.6176 2.5968 7.0051 0.77706 2.6429 1.4164 5.325 1.9181 8.0367 0.56066 3.026 1.0131 6.0717 1.3476 9.1272 0.37378 3.4387 0.65903 6.8773 0.85575 10.326 0.22624 3.8611 0.37378 7.7321 0.46231 11.593 0.088537 4.3229 0.13771 8.6458 0.12788 12.959v58.212c0.009831 4.3229-0.039339 8.636-0.12788 12.959-0.088523 3.871-0.23606 7.7321-0.46231 11.593-0.19672 3.4485-0.48197 6.897-0.85575 10.326-0.33443 3.0555-0.7869 6.111-1.3476 9.137-0.50166 2.7018-1.141 5.384-1.9181 8.0269-0.70821 2.3874-1.5738 4.7355-2.5968 7.0051-0.9541 2.1123-2.0754 4.1264-3.364 6.0422-1.2394 1.8372-2.6558 3.5566-4.2198 5.1187-1.5738 1.5621-3.2952 2.9769-5.1345 4.2148-1.9181 1.287-3.9443 2.4071-6.0591 3.3502-2.2722 1.0218-4.623 1.8864-7.0231 2.5937-2.646 0.77616-5.3313 1.4148-8.0461 1.906-3.0296 0.56984-6.0886 1.012-9.1477 1.346-3.4427 0.37333-6.8952 0.65826-10.348 0.85475-3.8755 0.22597-7.751 0.37335-11.626 0.46177-4.328 0.088419-8.6559 0.13755-12.984 0.12773h-74.126c-4.328 0.009819-8.6559-0.039308-12.984-0.12773-3.8755-0.08842-7.751-0.2358-11.626-0.46177-3.4525-0.19649-6.9051-0.48142-10.348-0.85475-3.0591-0.33405-6.1182-0.77616-9.1477-1.346-2.7148-0.49124-5.4001-1.1298-8.0461-1.906-2.4-0.70737-4.7509-1.572-7.0231-2.5937-2.1148-0.94317-4.1411-2.0632-6.0591-3.3502-1.8394-1.2379-3.5607-2.6527-5.1345-4.2148-1.564-1.5621-2.9804-3.2815-4.2198-5.1187-1.2886-1.9158-2.4099-3.9299-3.364-6.0422-1.023-2.2695-1.8886-4.6176-2.5968-7.0051-0.77706-2.6429-1.4164-5.325-1.9181-8.0269-0.56067-3.026-1.0131-6.0815-1.3476-9.137-0.37378-3.4289-0.65903-6.8773-0.85576-10.326-0.22623-3.8611-0.37378-7.7223-0.4623-11.593-0.088526-4.3229-0.13771-8.636-0.12787-12.959v-58.212c-0.009836-4.3131 0.039345-8.636 0.12787-12.959 0.088527-3.8611 0.23607-7.7321 0.4623-11.593 0.19672-3.4485 0.48198-6.8872 0.85576-10.326 0.33443-3.0555 0.7869-6.1012 1.3476-9.1272 0.50165-2.7116 1.141-5.3938 1.9181-8.0367 0.70821-2.3874 1.5738-4.7257 2.5968-7.0051 0.95412-2.1025 2.0755-4.1264 3.364-6.0422 1.2394-1.8372 2.6558-3.5467 4.2198-5.1187 1.5738-1.5621 3.2951-2.9769 5.1345-4.2148 1.9181-1.287 3.9443-2.4071 6.0591-3.3502 2.2722-1.0218 4.623-1.8864 7.0231-2.5839 2.646-0.77616 5.3313-1.4148 8.0461-1.9158 3.0296-0.56001 6.0886-1.012 9.1477-1.346 3.4427-0.37334 6.8952-0.65826 10.348-0.85476 3.8755-0.22597 7.751-0.37334 11.626-0.45194 4.3279-0.098248 8.6559-0.14737 12.984-0.13755h74.126zm0.009846 4.0085c4.2984-0.009825 8.5969 0.039299 12.895 0.12772 3.8263 0.088423 7.6526 0.23579 11.479 0.45194 3.3837 0.1965 6.7674 0.47159 10.131 0.84493 2.9705 0.31439 5.9313 0.74668 8.8625 1.2969 2.5771 0.47159 5.1345 1.0807 7.6526 1.8176 2.223 0.64844 4.3968 1.4541 6.5018 2.3972 1.9082 0.85476 3.7378 1.8667 5.469 3.026 1.623 1.0906 3.1378 2.3383 4.5247 3.7236s2.6361 2.8983 3.7378 4.5194c1.1607 1.7292 2.1738 3.5467 3.0296 5.4429 0.94427 2.1123 1.7509 4.2836 2.4 6.4942 0.74756 2.5151 1.3476 5.0598 1.8295 7.6338 0.541 2.9278 0.9738 5.8752 1.2984 8.8423 0.37378 3.3601 0.6492 6.73 0.84592 10.11 0.2164 3.8218 0.37378 7.6338 0.45246 11.456 0.088538 4.2934 0.13771 8.577 0.13771 12.87v58.212c0 4.2934-0.049169 8.577-0.13771 12.87-0.078677 3.8218-0.23606 7.6437-0.45246 11.456-0.19672 3.3797-0.47214 6.7496-0.84592 10.12-0.3246 2.9573-0.7574 5.9047-1.2984 8.8325-0.48197 2.5741-1.082 5.1187-1.8295 7.6339-0.64918 2.2204-1.4558 4.3819-2.4 6.4942-0.85576 1.8962-1.8689 3.7236-3.0296 5.4429-1.1017 1.6309-2.3509 3.1439-3.7378 4.5292-1.3869 1.3755-2.9017 2.6232-4.5247 3.7138-1.7312 1.1593-3.5607 2.1713-5.469 3.026-2.105 0.953-4.2788 1.7488-6.5018 2.3972-2.5181 0.73686-5.0755 1.346-7.6526 1.8176-2.9312 0.55018-5.8919 0.98248-8.8625 1.3067-3.364 0.36351-6.7477 0.64844-10.131 0.8351-3.8263 0.21615-7.6526 0.37335-11.479 0.45195-4.2985 0.098254-8.5969 0.13755-12.895 0.13755h-0.009846-74.126-0.009838c-4.2984 0-8.5969-0.039292-12.895-0.13755-3.8263-0.0786-7.6526-0.2358-11.479-0.45195-3.3837-0.18666-6.7673-0.47158-10.131-0.8351-2.9706-0.32422-5.9313-0.75651-8.8625-1.3067-2.5771-0.47158-5.1345-1.0807-7.6526-1.8176-2.223-0.64842-4.3968-1.4442-6.5018-2.3972-1.9082-0.85475-3.7378-1.8667-5.469-3.026-1.623-1.0906-3.1378-2.3383-4.5247-3.7138-1.3869-1.3853-2.6361-2.8983-3.7378-4.5292-1.1607-1.7193-2.1738-3.5467-3.0296-5.4429-0.94428-2.1123-1.7509-4.2738-2.4-6.4942-0.74756-2.5151-1.3476-5.0598-1.8295-7.6339-0.541-2.9278-0.97379-5.8752-1.2984-8.8325-0.37378-3.3699-0.64919-6.7398-0.84592-10.12-0.2164-3.812-0.37378-7.6339-0.45247-11.456-0.088526-4.2934-0.13771-8.577-0.13771-12.87v-58.212c0-4.2934 0.049181-8.577 0.13771-12.87 0.07869-3.8218 0.23607-7.6338 0.45247-11.456 0.19672-3.3797 0.47214-6.7496 0.84592-10.11 0.3246-2.9671 0.75739-5.9145 1.2984-8.8423 0.48198-2.5741 1.082-5.1187 1.8295-7.6338 0.64919-2.2106 1.4558-4.3818 2.4-6.4942 0.85575-1.8962 1.8689-3.7138 3.0296-5.4429 1.1017-1.6211 2.3509-3.1341 3.7378-4.5194s2.9017-2.633 4.5247-3.7236c1.7312-1.1593 3.5607-2.1713 5.469-3.026 2.105-0.94318 4.2788-1.7488 6.5018-2.3972 2.5181-0.73686 5.0755-1.346 7.6526-1.8176 2.9312-0.55019 5.8919-0.98248 8.8625-1.2969 3.364-0.37334 6.7477-0.64843 10.131-0.84493 3.8263-0.21614 7.6526-0.36352 11.479-0.45194 4.2984-0.088423 8.5969-0.13755 12.895-0.12772h0.009838 74.126 0.009846z" fill="url(#_lgradient_162)" fill-rule="evenodd"/>
  </g>
  <g filter="url(#4WBGpjGoaNCpwqJI4vDoXVwgskw8g742)" opacity=".4">
    <path d="m156.5 46c56 0 64.003 7.86 64.003 62.944v44.112c0 55.084-8.003 62.944-64.003 62.944h-56.994c-56 0-64.003-7.86-64.003-62.944v-44.112c0-55.084 8.003-62.944 64.003-62.944h56.994z"/>
  </g>
  <path d="m156.5 43c56 0 64.003 7.86 64.003 62.944v44.112c0 55.084-8.003 62.944-64.003 62.944h-56.994c-56 0-64.003-7.86-64.003-62.944v-44.112c0-55.084 8.003-62.944 64.003-62.944h56.994z" fill="#ebdbb2"/>
  <g opacity=".9">
    <g opacity=".5">
      <path d="m126.34 65.322-32.74 33.6h19.644v60.479h-19.644l32.74 33.599 32.741-33.599h-19.644v-60.479h19.644l-32.741-33.6z" fill="#ebdbb2"/>
    </g>
    <g opacity=".9">
      <path d="m129.66 91.665c-39.217 0-45.838 6.769-45.838 15.119 0 7.375 5.164 13.51 33.406 14.845l2.609 18.755h19.645l2.609-18.755c28.242-1.335 33.406-7.47 33.406-14.845 0-8.35-6.621-15.119-45.837-15.119z" fill-opacity=".2"/>
      <path d="m126.34 63-32.74 33.6h19.644v60.479h-19.644l32.74 33.599 32.741-33.599h-19.644v-60.479h19.644l-32.741-33.6z" fill="#504945"/>
      <path d="m113.24 113.4 3.274 23.52h19.645l3.274-23.52h-26.193z" fill="#bdae93"/>
    </g>
    <g opacity=".3">
      <path d="m126.34 63-32.742 33.6h3.146l29.596-30.372 29.595 30.372h3.145l-32.74-33.6zm-32.742 94.078 3.146 3.228h16.499v-3.228h-19.645zm45.838 0v3.228h16.499l3.145-3.228h-19.644z"/>
    </g>
    <linearGradient id="_lgradient_164" x2="0" y2="1" gradientTransform="matrix(91.675 0 0 30.239 80.5 88.2)" gradientUnits="userSpaceOnUse">
      <stop stop-color="#076678" offset="0"/>
      <stop stop-color="#458588" offset="1"/>
    </linearGradient>
    <path d="m172.18 103.32c0 8.35-6.569 15.119-45.838 15.119-39.268 0-45.837-6.769-45.837-15.119 0-8.351 6.621-15.12 45.837-15.12 39.217 0 45.838 6.769 45.838 15.12z" fill="url(#_lgradient_164)"/>
    <g opacity=".2">
      <path d="m116.05 133.6 0.462 3.32h19.645l0.46899-3.374-20.576 0.054001z"/>
    </g>
    <g opacity=".3">
      <path d="m126.34 88.2c-39.217 0-45.838 6.769-45.838 15.12 0 0.546 0.029999 1.085 0.094002 1.616 0.91-7.592 9.084-13.508 45.744-13.508 36.659 0 44.833 5.916 45.743 13.508 0.06401-0.531 0.094009-1.07 0.094009-1.616 0-8.351-6.621-15.12-45.837-15.12z" fill="#ebdbb2"/>
      <path d="m80.536 102.35c-0.021004 0.32-0.036003 0.64201-0.036003 0.968 0 8.35 6.57 15.119 45.838 15.119 39.268 0 45.837-6.769 45.837-15.119 0-0.325-0.014999-0.646-0.035995-0.965-0.533 7.897-8.071 14.148-45.801 14.148-37.736 0-45.271-6.253-45.802-14.151z"/>
    </g>
  </g>
</svg>
